X:1
T:Those dainty daffadillies - Morley
T:#
%%score 1 2 3 { 4 | 5 }
L:1/8
Q:1/4=120
M:4/4
K:F
V:1 treble nm="Soprano" snm="S"
V:2 treble nm="Alto" snm="A"
V:3 treble-8 nm="Tenor" snm="T"
V:4 bass nm="Bass I" snm="B"
V:5 bass 
V:1
 z4 z2 A2 |: G2"^Those dainty daffadillies" A2 B2 G2 | A4 A2 A2 | %3
w: Those|dain- ty daf- fa-|dil- lies, Which|
w: |||
w: As|their fair hue ex-|cel- leth, In|
 B3 B"^Thomas Morley \n(1557-1603)" B2 A2 |[M:4/4] G4 G4 | z4 d4 | AB c4 A2 | B2 FG AB c2- | %8
w: gave to me sweet|Phil- lis||||
w: ||Fa|la la la la|la, fa la la la la|
w: her so beau- ty|dwel- leth.||||
 cB A2 G2 c2 | BAGF A2 G2 ||1 F4 z2 A2 :|2 F8 |: z2 c2 cG B2- | BFAB c2 B2 | A4 G4 | z8 | %16
w: ||* Those||To me a- las|* of life and soul de-|priv- ed,||
w: * la la la, fa|la la la la la la|la. *|la.|||||
w: ||* As||And ev- er to|* be- hold them they in-|vite me,||
 z2 d2 f4 | e2 d3 c (c2- | c2 =B2) c2 G2 | cBAG F2 d2 | c2 BA G2 A2 | GF F2 F2 E2 | F8 :| %23
w: My sp'rits|they have re- viv\-|* * ed. *|la la la la la, fa|la la la la, fa|la la la la la|la.|
w: ||* * * Fa|||||
w: So sweet-|ly they de- light|* * me. *|||||
V:2
 z4 z2 F2 |: E2 F2 F2 E2 | F4 F2 F2 | G3 G G2 F2 |[M:4/4] E4 E2 C2 | G,3 A, B,4 | F,2 CD _EDEF | %7
w: Those|dain- ty daf- fa-|dil- lies, Which|gave to me sweet|Phil- lis. *|||
w: ||||* * Fa|la la la|la la la la la la la|
w: As|their fair hue ex-|cel- leth, In|her so beau- ty|dwel- leth. *|||
 G2 DE F4 | E2 CD E2 A2 | GF F2 F2 E2 ||1 F4 z2 F2 :|2 F8 |: F2 F_E E3 D | D2 F2 _E2 D2 | D4 D4 | %15
w: |||* Those||To me a- las of|life and soul de-|priv- ed,|
w: la la la la|la, fa la la la|la la la la la|la. *|la.||||
w: |||* As||And ev- er to be-|hold them they in-|vite me,|
 z8 | G2 B4 A2 | G2 F4 (E2 | D4) E2 E2 | AGFE D2 B2 | A2 GF E2 F2 | D2 C2 C3 B, | A,8 :| %23
w: |My sp'rits they|have re- viv\-|* ed. *|la la la la la, fa|la la la la, fa|la la la la|la.|
w: |||* * Fa|||||
w: |So sweet- ly|they de- light|* me. *|||||
V:3
 z4 z2 c2 |: c2 c2 d2 c2 | c4 c2 c2 | _e3 e e2 c2 |[M:4/4][K:treble-8] c4 c2 _e2 | B3 c de f2- | %6
w: Those|dain- ty daf- fa-|dil- lies, Which|gave to me sweet|Phil- lis. *||
w: ||||* * Fa|la la la la la|
w: As|their fair hue ex-|cel- leth, In|her so beau- ty|dwel- leth. *||
 f2 f2 g2 c2 | d2 B2 c2 A2 | G2 AB c4 | d2 B2 c4 ||1 c4 z2 c2 :|2 c8 |: z2 c2 cB B2- | %13
w: ||||* Those||To me a- las|
w: * la la la|la la la, fa|la la la la|la la la|la. *|la.||
w: ||||* As||And ev- er to|
 BAAF c2 d2- | d (c A2) =B4 | z2 d2 f4 | e2 d4 c2- | c (B A2) G4- | G2 d2 c4- | c4 z2 gf | %20
w: * of life and soul de\-|* priv\- * ed,|My sp'rits|they have re\-|* viv\- * ed.||* fa la|
w: |||||* Fa la,||
w: * be- hold them they in\-|* vite * me,|So sweet-|ly they de\-|* light * me.|||
 e2 d2 G2 c2 | B2 A2 G4 | F8 :| %23
w: la la la la|la la la|la.|
w: |||
w: |||
V:4
 z4 z2 F,2 |: G,2 C,2 G,2 G,2 | F,4 F,2 A,2 | G,3 G, G,2 (A,F,) |[M:4/4] G,4 G,4 | z2 B,4 F,G, | %6
w: Those|dain- ty daf- fa-|dil- lies, Which|gave to me sweet *|Phil- lis.||
w: |||||Fa la la|
w: As|their fair hue ex-|cel- leth, In|her so beau- ty *|dwel- leth.||
 A,2 A,2 G,4 | G,2 F,4 C,D, | E,2 F,2 G,2 F,E, | D,2 F,2 C3 B, ||1 A,4 z2 A,2 :|2 A,8 |: %12
w: ||||* Those||
w: la la la|la, fa la la|la, fa la la la|la, fa la la|la. *|la.|
w: ||||* As||
 A,2 A,G, G,3 F, | F,3 F, G,2 G,2 | ^F,4 G,4 | B,2 D4 C2 | B,2 B,2 (F,G,A,B,) | C2 F,2 (D,2 E,F,) | %18
w: To me a- las of|life and soul de-|priv- ed,|My sp'rits they|have re- viv\- * * *|ed, re- viv\- * *|
w: ||||||
w: And ev- er to be-|hold them they in-|vite me,|So sweet- ly|they de- light * * *|me, de- light * *|
 G,2 G,2 G,F,E,D, | C,4 D,2 G,2 | C,2 D,2 E,2 C,2 | D,2 F,2 G,2 C2 | C8 :| %23
w: ed. * * * * *|la la, fa|la la la, fa|la la la la|la.|
w: * Fa la la la la|||||
w: me. * * * * *|||||
V:5
 z4 z2 F,,2 |: C,2 A,,2 G,,2 C,2 | F,,4 F,,2 F,2 | _E,3 E, E,2 F,2 |[M:4/4] C,4 C,4 | %5
w: Those|dain- ty daf- fa-|dil- lies, Which|gave to me sweet|Phil- lis.|
w: |||||
w: As|their fair hue ex-|cel- leth, In|her so beau- ty|dwel- leth.|
 _E,4 B,,C,D,E, | F,2 F,,2 C,4 | G,,A,, B,,2 F,,G,,A,,B,, | C,6 A,,2 | B,,2 D,2 C,4 ||1 %10
w: |||||
w: Fa la la la la|la la la|la la la la, fa la la|la la|la la la|
w: |||||
 F,,4 z2 F,,2 :|2 F,,8 |: F,2 F,C, _E,3 B,, | D,3 D, C,2 G,,2 | D,4 G,,4 | G,2 B,4 A,2 | %16
w: * Those||To me a- las of|life and soul de-|priv- ed,|My sp'rits they|
w: la. *|la.|||||
w: * As||And ev- er to be-|hold them they in-|vite me,|So sweet- ly|
 G,4 D,2 F,2 | C,2 D,2 (=B,,2 C,2) | G,,4 C,4 | A,,4 B,,2 G,,2 | A,,2 B,,2 C,2 A,,2 | %21
w: have re- viv-|ed, they have re-|viv- ed.|fa la la|la la la, fa|
w: |||||
w: they de- light|me, they de\- *|light me.|||
 B,,2 F,,2 C,4 | F,,8 :| %23
w: la la la|la.|
w: ||
w: ||

